portfolio-htmlcssjs/img/ico_twitter.svg

<svg fill="none" height="21" viewBox="0 0 20 21" width="20" xmlns="http://www.w3.org/2000/svg"><path d="m17.9441 6.40799c.0127.17645.0127.35293.0127.52937 0 5.38174-4.1243 11.58274-11.66239 11.58274-2.32234 0-4.47968-.668-6.29441-1.8275.329961.0378.647187.0504.989844.0504 1.916206 0 3.680196-.6428 5.088826-1.7393-1.80203-.0378-3.31219-1.21-3.8325-2.8232.25383.0378.50762.063.77414.063.36801 0 .73606-.0505 1.07867-.1386-1.87816-.3782-3.286832-2.0166-3.286832-3.99541v-.0504c.545662.30249 1.180232.49154 1.852772.51672-1.10406-.73102-1.827381-1.97877-1.827381-3.39038 0-.75621.203011-1.44941.558361-2.05438 2.01777 2.47031 5.05078 4.08354 8.45176 4.26002-.06344-.30249-.10153-.61754-.10153-.93264 0-2.24347 1.82747-4.07098 4.09897-4.07098 1.1802 0 2.2462.49154 2.9949 1.28557.9264-.17644 1.8147-.51676 2.6016-.98308-.3046.94529-.9518 1.73932-1.8021 2.24343.8249-.08818 1.6244-.3151 2.3604-.63015-.5583.80659-1.2563 1.52497-2.0558 2.10477z" fill="#fff"/></svg>

<svg width="20" height="21" viewBox="0 0 20 21" fill="none" xmlns="http://www.w3.org/2000/svg">
<path d="M17.9441 6.40799C17.9568 6.58444 17.9568 6.76092 17.9568 6.93736C17.9568 12.3191 13.8325 18.5201 6.29441 18.5201C3.97207 18.5201 1.81473 17.8521 0 16.6926C0.329961 16.7304 0.647187 16.743 0.989844 16.743C2.90605 16.743 4.67004 16.1002 6.07867 15.0037C4.27664 14.9659 2.76648 13.7937 2.24617 12.1805C2.5 12.2183 2.75379 12.2435 3.02031 12.2435C3.38832 12.2435 3.75637 12.193 4.09898 12.1049C2.22082 11.7267 0.812148 10.0883 0.812148 8.10949V8.05909C1.35781 8.36158 1.99238 8.55063 2.66492 8.57581C1.56086 7.84479 0.837539 6.59704 0.837539 5.18543C0.837539 4.42922 1.04055 3.73602 1.3959 3.13105C3.41367 5.60136 6.44668 7.21459 9.84766 7.39107C9.78422 7.08858 9.74613 6.77353 9.74613 6.45843C9.74613 4.21496 11.5736 2.38745 13.8451 2.38745C15.0253 2.38745 16.0913 2.87899 16.84 3.67302C17.7664 3.49658 18.6547 3.15626 19.4416 2.68994C19.137 3.63523 18.4898 4.42926 17.6395 4.93337C18.4644 4.84519 19.2639 4.61827 19.9999 4.30322C19.4416 5.10981 18.7436 5.82819 17.9441 6.40799Z" fill="white"/>
</svg>
